X:1
T:Title
%%score { ( 1 3 ) | ( 2 4 ) }
L:1/8
M:4/4
K:G
V:1 treble nm="Grand Piano"
V:3 treble 
V:2 treble 
V:4 treble 
V:1
 z4 z2[Q:1/4=100] D2 | B3 A G2 A2 | G2 F4 D2 | [Ac]3 [GB] [FA]2 [Ac]2 | [GB]6 [GB]2 | %5
 [Bd]3 [Ac] B2 G2 | F2 A4 F2 | [DA]3 [B,DG] [A,DF]2[K:bass] [G,^CE]2 | [F,D]6[K:treble] D2 | %9
 [Ac]3 [^GB] [Ac]2 [Bd]2 | [Ac]2 B4 D2 | [Ac]3 [^GB] [Ac]2 [Bd]2 | [GB]6 [GB]2 | %13
 [Bd]3 [Ac] [GB]2 [=FB]2 | d2 z2 z4 | B2 G2 G2 F2 |[M:3/4] [B,G]6 |[M:1/4] [Gd]2 | %18
[M:4/4] [Fd]3 [FA] [FA]2 [Fd]2 | d2 B4 B2 | [^DB]3 [DF] [DF]2 [DB]2 |[M:3/4] [EG]6 | %22
[M:1/4] [=FG]2 |[M:4/4] [Ee]3 [Ee] [Gd]2 [Gd]2 | A2 z2 z4 | [CEc]2 [CEA]2 [B,DG]2 .[A,DF]2 | %26
[M:3/4] [G,B,G]6 |] %27
V:2
 z4 z2 [G,B,]2 | [G,DG]3 [G,CG] [G,B,D]2 [G,CD]2 | [D,B,D]2 [D,A,D]4 [D,F,]2 | %3
 [D,D]3 [D,D] [D,D]2 [F,D]2 | [G,D]6 [G,D]2 | [G,D]3 [G,D] [G,DG]2 [G,B,D]2 | %6
 [A,D]2 [A,DF]4[K:bass] [A,D]2 | [A,,F,]3 A,, A,,2 A,,2 | D,6 D,2 | [D,D]3 [D,D] [D,D]2 [D,D]2 | %10
 [F,D]2[K:treble] [G,DG]4 [G,B,]2 | [D,D]3 [D,D] [D,D]2 [D,D]2 | [G,D]6 [G,D]2 | %13
 [G,D]3 [G,D] [G,D]2 [G,D]2 | z2[K:treble] c2[K:bass] C,2 [C,G,]2 | %15
 [D,G,D]2 [D,B,D]2 [D,A,C]2 [D,A,C]2 |[M:3/4] [G,,G,]6 |[M:1/4] [G,B,]2 | %18
[M:4/4] [D,A,]3 [D,D] [D,D]2 [D,C]2 | [G,B,G]2 [G,DG]4[K:bass] [G,B,D]2 | %20
 [B,,B,]3 [B,,B,] [B,,B,]2 [B,,B,]2 |[M:3/4] [E,B,]6 |[M:1/4] [G,B,]2 | %23
[M:4/4] [C,C]3 [C,C] [G,B,]2 [G,B,]2 | F,2 D,2 G,2 G,2 | C,2 C,2 D,2 z C |[M:3/4] G,,6 |] %27
V:3
 x8 | x8 | x8 | x8 | x8 | x8 | x8 | x6[K:bass] x2 | x6[K:treble] x2 | x8 | x8 | x8 | x8 | x8 | %14
 E4 [CEG]2 [^DA]2 | x8 |[M:3/4] x6 |[M:1/4] x2 |[M:4/4] x8 | x8 | x8 |[M:3/4] x6 |[M:1/4] x2 | %23
[M:4/4] x8 | [Dc]2- [DFc]2 [DGB]2 [D=FB]2 | x8 |[M:3/4] x6 |] %27
V:4
 x8 | x8 | x8 | x8 | x8 | x8 | x6[K:bass] x2 | x8 | x8 | x8 | x2[K:treble] x6 | x8 | x8 | x8 | %14
 [C,C]4[K:treble][K:bass] z4 | x8 |[M:3/4] x6 |[M:1/4] x2 |[M:4/4] x8 | x6[K:bass] x2 | x8 | %21
[M:3/4] x6 |[M:1/4] x2 |[M:4/4] x8 | x8 | z4 z2 D,2 |[M:3/4] x6 |] %27

